Yaru++/actions/16/installed.svg

<svg height="16" width="16" xmlns="http://www.w3.org/2000/svg">
  <path d="m5.3261719 0c-1.67759.0195-2.9064963-.04015815-3.9101563.51367188-.50182989.27685999-.89762744.74519812-1.11718748 1.33007812-.21955998.58488-.29882812 1.27944-.29882812 2.15625v8c0 .87681.07924814 1.57137.29882812 2.15625.21956002.58488.61535757 1.053218 1.11718748 1.330078 1.00366.55376 2.2325663.494242 3.9101563.513672h.0039062 5.3398439.003906c1.67759-.0195 2.904543.04016 3.908203-.513672.50183-.27686.897628-.745198 1.117188-1.330078.219984-.58488.300781-1.27944.300781-2.15625v-8c0-.87681-.079248-1.57136-.298828-2.15625-.21955-.58488-.615358-1.05319815-1.117188-1.33007812-1.00366-.55379002-2.232556-.49431188-3.910156-.51367188h-.003906-2.0039064-3.3359375zm2.2675781 3.0078125h.0019531c1.283929-.0769015 2.5600569.3464379 3.5468749 1.1875l.976563-.9765625c.19071.52781.371675 1.0788769.541015 1.6542969.16527.5721.3131 1.1350431.44336 1.6894531-.55874-.12594-1.125156-.2702869-1.697266-.4355469-.57511-.16926-1.123244-.351965-1.6464844-.546875l.8652344-.8671875c-1.216-1.00995-2.9158513-1.3017006-4.4257812-.6503906-1.86873.80609-2.9115501 2.8096044-2.5 4.8027344.41155 1.9931396 2.1640387 3.4199216 4.1992187 3.4199216h.0058594l.5429687-.037109.0488282.712891-.2402344.015624v.023438h-.3554688c-2.36974 0-4.4192375-1.669454-4.8984375-3.9902344-.4792-2.32078.7400757-4.6629625 2.9160157-5.6015625.5433666-.2343854 1.1109226-.3662088 1.6757812-.4003906zm4.029297 7.1152345.59375.396484-.341797.513672-.029297.035156-.064453.074219-.537109-.470703.052734-.060547zm-.835938 1.03125.470703.537109-.300781.263672-.037109.029297-.261719.173828-.396484-.59375.242187-.162109zm-1.1074215.734375.3144531.640625-.1542968.078125-.0429688.017578-.5117188.175781-.2304687-.677734.4824219-.164063z" fill="#30d158"/>
</svg>

<svg xmlns="http://www.w3.org/2000/svg" width="16" height="16" version="1.1">
 <g transform="translate(-212.00006,-280)">
  <path style="fill:#76c22b" d="M 5.3261719 0 C 3.6485819 0.0195 2.4196756 -0.040158145 1.4160156 0.51367188 C 0.91418571 0.79053187 0.51838816 1.25887 0.29882812 1.84375 C 0.079268135 2.42863 -3.7007434e-17 3.12319 0 4 L 0 12 C 0 12.87681 0.079248135 13.57137 0.29882812 14.15625 C 0.51838814 14.74113 0.91418569 15.209468 1.4160156 15.486328 C 2.4196756 16.040088 3.6485819 15.98057 5.3261719 16 L 5.3300781 16 L 10.669922 16 L 10.673828 16 C 12.351418 15.9805 13.578371 16.04016 14.582031 15.486328 C 15.083861 15.209468 15.479659 14.74113 15.699219 14.15625 C 15.919203 13.57137 16 12.87681 16 12 L 16 4 C 16 3.12319 15.920752 2.42864 15.701172 1.84375 C 15.481622 1.25887 15.085814 0.79055185 14.583984 0.51367188 C 13.580324 -0.040118135 12.351428 0.01936 10.673828 0 L 10.669922 0 L 8.6660156 0 L 5.3300781 0 L 5.3261719 0 z M 7.59375 3.0078125 L 7.5957031 3.0078125 C 8.8796321 2.930911 10.15576 3.3542504 11.142578 4.1953125 L 12.119141 3.21875 C 12.309851 3.74656 12.490816 4.2976269 12.660156 4.8730469 C 12.825426 5.4451469 12.973256 6.00809 13.103516 6.5625 C 12.544776 6.43656 11.97836 6.2922131 11.40625 6.1269531 C 10.83114 5.9576931 10.283006 5.7749881 9.7597656 5.5800781 L 10.625 4.7128906 C 9.409 3.7029406 7.7091487 3.41119 6.1992188 4.0625 C 4.3304888 4.86859 3.2876687 6.8721044 3.6992188 8.8652344 C 4.1107688 10.858374 5.8632575 12.285156 7.8984375 12.285156 L 7.9042969 12.285156 L 8.4472656 12.248047 L 8.4960938 12.960938 L 8.2558594 12.976562 L 8.2558594 13 L 7.9003906 13 C 5.5306506 13 3.4811531 11.330546 3.0019531 9.0097656 C 2.5227531 6.6889856 3.7420288 4.3468031 5.9179688 3.4082031 C 6.4613354 3.1738177 7.0288914 3.0419943 7.59375 3.0078125 z M 11.623047 10.123047 L 12.216797 10.519531 L 11.875 11.033203 L 11.845703 11.068359 L 11.78125 11.142578 L 11.244141 10.671875 L 11.296875 10.611328 L 11.623047 10.123047 z M 10.787109 11.154297 L 11.257812 11.691406 L 10.957031 11.955078 L 10.919922 11.984375 L 10.658203 12.158203 L 10.261719 11.564453 L 10.503906 11.402344 L 10.787109 11.154297 z M 9.6796875 11.888672 L 9.9941406 12.529297 L 9.8398438 12.607422 L 9.796875 12.625 L 9.2851562 12.800781 L 9.0546875 12.123047 L 9.5371094 11.958984 L 9.6796875 11.888672 z" transform="translate(212.00006,280)"/>
 </g>
</svg>
